X: 410
T: Bir Sadâ-yı Dilnüvâz
C: Ahmet Avni Konuk
O: Turkey
F: http://compmusic.upf.edu/node/140
N: karcigar--kupe--duyek--bir_sada-yi--ahmet_avni_konuk
N: makam= karcigar
N: form= kupe
N: usul= duyek = 8/4
M: 8/4
L: 1/16
K: C _2/4B _3/4e ^3/4f 
Q: 1/4=57
%%MIDI tuningsystem comma53
z4 d2c2 B4 c4 d4 {f}e2d2 d4 {=f}d2e2  | \
w:  Bir  *  *  sa dâ  *  *  *  yı   | 
d2c2 c8 c2B2 BABc B2A2 A6z2  | 
w:  *  *  dil nü *  vâz  *  *  *  *  *  i  | 
z4 d2c2 B4 c4 d8 d4 e4  | e2d2 a2g2 g2f2 f2e2 edef e2d2 d8  | 
w:  le  *  *  o kun sa   |  *  *  Kar *  *  *  cı *  ğar    | 
z4 d4 g4 g4 f2g2 a2{_b}ag aggf g4  | \
w:  Kal *  bi ne  *  *  *  *  *  gam  | 
z4 c4 c2d2 c2B2 B2A2 B2A2 A6z2  | 
w:  dî *  *  de *  nin  *  *  *  el  | 
z4 B2c2 d2_2/4e2 f2g2 a2_b2 a2g2 g3f e2d2  | \
w:  bet  *  *  *  me *  ser *  *  *  ret  | 
c4 c2c2 c4 c2B2 BABc B2A2 A6z2  | 
w:  *  ler  *  *  ya *  ğar    | 
|


